X:1
T: The Forth Bridge
C:W. Blyth
R:Strathspey
Q: 128
K:D
M:4/4
L:1/16
|:A,2|DD3 F3D A3D F3D|A,3D F3A ((3D2F2A2) ((3B2c2d2) |A,A,3 C3E A3E C3E|((3e2f2e2) ((3d2c2B2) ((3A2B2G2) ((3F2G2E2) |
DD3 F3D A3D F3D|A,3D F3A ((3F2G2A2) ((3B2c2d2) |g3a b3g f3g a3f|((3g2a2b2) ((3a2b2c'2) d'd3 d2g2|
fd3 d3g ((3f2e2d2) ((3c2B2A2) |d3f c3a B3g A3F|G3B e3G F3A d3F|GE3 e3d cde2 A3g|
fd3 d3g ((3f2e2d2) ((3c2B2A2) |db3 ca3 Bg3 A3F|Ge3 Fd3 Ec3 D3g|((3f2e2d2) ((3c2d2e2) fd3-d2:|
